X:50
T:The Happy Fifer
C:Roy Watrous, 1988
S:The Watrous Book, p. 11
M:2/4
L:1/16
Q:1/4=90
K:D
%%MIDI channel 1
%%MIDI program 72
%%MIDI transpose 8
%%MIDI grace 1/8
%%MIDI ratio 3 1
|:FG|A2fe d2cB|Aagf e2fg|azAg zfez|defd AGFG|
A2fe d2cB|Aagf e2fg|abaf gecA|d6::ef|gAfA eAfA|gAfA e2fg|
azAg zfez|defd AGFG|A2fe d2cB|Aagf e2fg|abaf gecA|d6:|
